X:0133
T:My Peggy is a Young thing.
T:The Wauking of the Faulds
M:C
L:1/8
Q:1/4=132 "Lively"
I: :: ::
Z:Jack Campin * www.campin.me.uk * 2009
K:A Dorian
G|EAAB   A2(ge)| (dB)(AG) E2DE |G>ABA           GEDE |(G/F/G/A/)  BA     GEDG |
  EAAB   A2 GA |(TBAB)d   e2g>a|bage            d>egB|TA>GEG             A3  :|
g|eaab   a2 ga |  b2Ta>g  e2de |g>a     (g/a/b) G>ABG|(g/f/g/a/) (g/a/b) G>ABG|
  Aa-ab Ta3  g |(Te>de)g  a2g>a|(b/a/g) (a/g/e) d>egB| A>GEG             A3  :|

